(G-code generated by FlatCAM Evo vUnstable - Version Date: 2023/6/31)

(Name: SCAN2000_rearconn.drl_exc_cnc_cnc)
(Type: G-code from Geometry)
(Units: MM)

(Created on Saturday, 24 June 2023 at 18:25)

(This preprocessor is the default preprocessor.)
(It is made to work with MACH3 compatible motion controllers.)

(TOOL DIAMETER: 1.49 mm)
(Feedrate_XY: 120.0 mm/min)
(Feedrate_Z: 60.0 mm/min)
(Feedrate rapids 1500.0 mm/min)

(Z_Cut: -2.4 mm)
(DepthPerCut: 0.8 mm <=>3 passes)
(Z_Move: 2.0 mm)
(Z Start: None mm)
(Z End: 15.0 mm)
(X,Y End: None mm)
(Steps per circle: 16)
(Preprocessor Geometry: default)

(X range:    1.4500 ...   32.7500  mm)
(Y range:    0.9500 ...   30.0500  mm)

(Spindle Speed: 0.0 RPM)
G21
G90
G94

G01 F120.00
G00 Z2.0000

M03
G01 F120.00
G00 X20.3296 Y9.4950
G01 F60.00
G01 Z-0.8000
G01 F120.00
G01 X20.3295 Y9.5000
G01 X20.3296 Y9.5050
G01 X21.6704 Y9.5050
G01 X21.6705 Y9.5000
G01 X21.6705 Y9.5000
G01 X21.6704 Y9.4950
G01 X21.7317 Y9.5050
G01 X21.7541 Y9.5000
G01 X21.7317 Y9.4950
G01 X20.2683 Y9.4950
G01 X20.2459 Y9.5004
G01 X20.2683 Y9.5050
G01 X21.7317 Y9.5050
G00 X21.7317 Y9.5050
G01 F60.00
G01 Z-1.6000
G01 F120.00
G01 X20.2683 Y9.5050
G01 X20.2459 Y9.5004
G01 X20.2683 Y9.4950
G01 X21.7317 Y9.4950
G01 X21.7541 Y9.5000
G01 X21.7317 Y9.5050
G01 X21.6704 Y9.4950
G01 X21.6705 Y9.5000
G01 X21.6705 Y9.5000
G01 X21.6704 Y9.5050
G01 X20.3296 Y9.5050
G01 X20.3295 Y9.5000
G01 X20.3296 Y9.4950
G00 X20.3296 Y9.4950
G01 F60.00
G01 Z-2.4000
G01 F120.00
G01 X20.3295 Y9.5000
G01 X20.3296 Y9.5050
G01 X21.6704 Y9.5050
G01 X21.6705 Y9.5000
G01 X21.6705 Y9.5000
G01 X21.6704 Y9.4950
G01 X21.7317 Y9.5050
G01 X21.7541 Y9.5000
G01 X21.7317 Y9.4950
G01 X20.2683 Y9.4950
G01 X20.2459 Y9.5004
G01 X20.2683 Y9.5050
G01 X21.7317 Y9.5050
G00 Z2.0000
G00 X21.7317 Y15.5050
G01 F60.00
G01 Z-0.8000
G01 F120.00
G01 X20.2683 Y15.5050
G01 X20.2459 Y15.5004
G01 X20.2683 Y15.4950
G01 X21.7317 Y15.4950
G01 X21.7541 Y15.5000
G01 X21.7317 Y15.5050
G01 X21.6704 Y15.4950
G01 X21.6705 Y15.5000
G01 X21.6705 Y15.5000
G01 X21.6704 Y15.5050
G01 X20.3296 Y15.5050
G01 X20.3295 Y15.5000
G01 X20.3296 Y15.4950
G00 X20.3296 Y15.4950
G01 F60.00
G01 Z-1.6000
G01 F120.00
G01 X20.3295 Y15.5000
G01 X20.3296 Y15.5050
G01 X21.6704 Y15.5050
G01 X21.6705 Y15.5000
G01 X21.6705 Y15.5000
G01 X21.6704 Y15.4950
G01 X21.7317 Y15.5050
G01 X21.7541 Y15.5000
G01 X21.7317 Y15.4950
G01 X20.2683 Y15.4950
G01 X20.2459 Y15.5004
G01 X20.2683 Y15.5050
G01 X21.7317 Y15.5050
G00 X21.7317 Y15.5050
G01 F60.00
G01 Z-2.4000
G01 F120.00
G01 X20.2683 Y15.5050
G01 X20.2459 Y15.5004
G01 X20.2683 Y15.4950
G01 X21.7317 Y15.4950
G01 X21.7541 Y15.5000
G01 X21.7317 Y15.5050
G01 X21.6704 Y15.4950
G01 X21.6705 Y15.5000
G01 X21.6705 Y15.5000
G01 X21.6704 Y15.5050
G01 X20.3296 Y15.5050
G01 X20.3295 Y15.5000
G01 X20.3296 Y15.4950
G00 Z2.0000
G00 X21.7317 Y21.5050
G01 F60.00
G01 Z-0.8000
G01 F120.00
G01 X20.2683 Y21.5050
G01 X20.2459 Y21.5004
G01 X20.2683 Y21.4950
G01 X21.7317 Y21.4950
G01 X21.7541 Y21.5000
G01 X21.7317 Y21.5050
G01 X21.6704 Y21.4950
G01 X21.6705 Y21.5000
G01 X21.6705 Y21.5000
G01 X21.6704 Y21.5050
G01 X20.3296 Y21.5050
G01 X20.3295 Y21.5000
G01 X20.3296 Y21.4950
G00 X20.3296 Y21.4950
G01 F60.00
G01 Z-1.6000
G01 F120.00
G01 X20.3295 Y21.5000
G01 X20.3296 Y21.5050
G01 X21.6704 Y21.5050
G01 X21.6705 Y21.5000
G01 X21.6705 Y21.5000
G01 X21.6704 Y21.4950
G01 X21.7317 Y21.5050
G01 X21.7541 Y21.5000
G01 X21.7317 Y21.4950
G01 X20.2683 Y21.4950
G01 X20.2459 Y21.5004
G01 X20.2683 Y21.5050
G01 X21.7317 Y21.5050
G00 X21.7317 Y21.5050
G01 F60.00
G01 Z-2.4000
G01 F120.00
G01 X20.2683 Y21.5050
G01 X20.2459 Y21.5004
G01 X20.2683 Y21.4950
G01 X21.7317 Y21.4950
G01 X21.7541 Y21.5000
G01 X21.7317 Y21.5050
G01 X21.6704 Y21.4950
G01 X21.6705 Y21.5000
G01 X21.6705 Y21.5000
G01 X21.6704 Y21.5050
G01 X20.3296 Y21.5050
G01 X20.3295 Y21.5000
G01 X20.3296 Y21.4950
G00 Z2.0000
M05
G00 Z2.0000
G00 Z15.00


