(G-code generated by FlatCAM Evo vUnstable - Version Date: 2023/6/31)

(Name: SCAN2000_rearconn-F_Cu.gbr_iso_combined_cnc)
(Type: G-code from Geometry)
(Units: MM)

(Created on Saturday, 24 June 2023 at 18:10)

(This preprocessor is the default preprocessor.)
(It is made to work with MACH3 compatible motion controllers.)

(TOOL DIAMETER: 2.4 mm)
(Feedrate_XY: 120.0 mm/min)
(Feedrate_Z: 60.0 mm/min)
(Feedrate rapids 1500.0 mm/min)

(Z_Cut: -0.1 mm)
(Z_Move: 2.0 mm)
(Z Start: None mm)
(Z End: 15.0 mm)
(X,Y End: None mm)
(Steps per circle: 16)
(Preprocessor Geometry: default)

(X range:   -1.1995 ...   38.1995  mm)
(Y range:   -1.1995 ...   32.1995  mm)

(Spindle Speed: 0.0 RPM)
G21
G90
G94

G01 F120.00
G00 Z2.0000

M03
G01 F120.00
G00 X2.6642 Y0.3994
G01 F60.00
G01 Z-0.1000
G01 F120.00
G01 X2.6908 Y0.1949
G01 X2.6902 Y0.0872
G01 X2.7024 Y-0.0476
G01 X2.7392 Y-0.2284
G01 X2.7760 Y-0.3454
G01 X2.8246 Y-0.4580
G01 X2.8844 Y-0.5651
G01 X2.9548 Y-0.6655
G01 X3.0780 Y-0.8079
G01 X3.1606 Y-0.8867
G01 X3.2504 Y-0.9573
G01 X3.3465 Y-1.0190
G01 X3.4480 Y-1.0714
G01 X3.5540 Y-1.1138
G01 X3.6754 Y-1.1509
G01 X3.8427 Y-1.1873
G01 X3.9564 Y-1.1981
G01 X19.4705 Y-1.1995
G01 X19.6625 Y-1.1840
G01 X19.8354 Y-1.1467
G01 X19.9494 Y-1.1096
G01 X20.0592 Y-1.0614
G01 X20.1636 Y-1.0024
G01 X20.2616 Y-0.9333
G01 X20.4029 Y-0.8110
G01 X20.4817 Y-0.7284
G01 X20.5523 Y-0.6386
G01 X20.6140 Y-0.5425
G01 X20.6664 Y-0.4410
G01 X20.7088 Y-0.3350
G01 X20.7459 Y-0.2136
G01 X20.7823 Y-0.0463
G01 X20.7931 Y0.0674
G01 X20.7945 Y8.4003
G01 X20.8090 Y8.6634
G01 X20.7993 Y8.8320
G01 X20.7789 Y8.9539
G01 X20.7461 Y9.0731
G01 X20.7013 Y9.1882
G01 X20.6426 Y9.3060
G01 X20.5537 Y9.4524
G01 X20.5169 Y9.4993
G01 X20.6435 Y9.6840
G01 X20.6958 Y9.7890
G01 X20.7377 Y9.8985
G01 X20.7799 Y10.0692
G01 X20.8000 Y10.1946
G01 X20.8084 Y10.3085
G01 X20.7947 Y10.5544
G01 X20.7930 Y11.0297
G01 X20.7815 Y11.1465
G01 X20.7447 Y11.3240
G01 X20.7078 Y11.4409
G01 X20.6593 Y11.5533
G01 X20.5995 Y11.6603
G01 X20.5291 Y11.7605
G01 X20.4060 Y11.9029
G01 X20.3234 Y11.9817
G01 X20.2336 Y12.0523
G01 X20.1375 Y12.1140
G01 X20.0360 Y12.1664
G01 X19.9300 Y12.2088
G01 X19.8086 Y12.2459
G01 X19.6413 Y12.2823
G01 X19.5276 Y12.2931
G01 X11.5685 Y12.2945
G01 X11.4106 Y12.2841
G01 X11.3001 Y12.2668
G01 X11.0586 Y12.2050
G01 X10.7748 Y12.1593
G01 X10.4076 Y12.0729
G01 X10.1770 Y12.0096
G01 X9.9772 Y11.9434
G01 X9.5967 Y11.8020
G01 X9.1727 Y11.6049
G01 X9.0396 Y11.5385
G01 X8.7070 Y11.3451
G01 X8.5110 Y11.2216
G01 X8.3506 Y11.1086
G01 X8.0160 Y10.8545
G01 X7.5594 Y10.4406
G01 X7.3210 Y10.1861
G01 X7.1455 Y9.9840
G01 X7.0336 Y9.8407
G01 X6.7784 Y9.4890
G01 X6.4615 Y8.9604
G01 X6.3043 Y8.6407
G01 X6.1980 Y8.4033
G01 X6.1377 Y8.2471
G01 X5.9904 Y7.8230
G01 X5.8407 Y7.2252
G01 X5.7893 Y6.9186
G01 X5.7502 Y6.6155
G01 X5.7214 Y6.0589
G01 X5.7368 Y5.5681
G01 X5.7665 Y5.1656
G01 X5.7513 Y4.9823
G01 X5.6992 Y4.7589
G01 X5.6437 Y4.6151
G01 X5.5705 Y4.4800
G01 X5.4239 Y4.2872
G01 X5.2747 Y4.1443
G01 X5.1503 Y4.0533
G01 X5.0167 Y3.9798
G01 X4.8391 Y3.9105
G01 X4.6092 Y3.8594
G01 X4.4872 Y3.8500
G01 X4.0411 Y3.8486
G01 X3.8752 Y3.8322
G01 X3.7597 Y3.8092
G01 X3.6232 Y3.7691
G01 X3.4165 Y3.6788
G01 X3.2463 Y3.5717
G01 X3.0747 Y3.4253
G01 X2.9283 Y3.2537
G01 X2.8212 Y3.0835
G01 X2.7604 Y2.9549
G01 X2.7124 Y2.8209
G01 X2.6779 Y2.6829
G01 X2.6526 Y2.4834
G01 X2.6500 Y0.6000
G01 X2.6642 Y0.3994
G00 Z2.0000
G00 X20.8338 Y8.7217
G01 F60.00
G01 Z-0.1000
G01 F120.00
G01 X20.8122 Y8.6096
G01 X20.8000 Y8.4388
G01 X20.8017 Y0.0603
G01 X20.8155 Y-0.0675
G01 X20.8528 Y-0.2404
G01 X20.8899 Y-0.3544
G01 X20.9381 Y-0.4642
G01 X20.9971 Y-0.5686
G01 X21.0662 Y-0.6666
G01 X21.1885 Y-0.8079
G01 X21.2711 Y-0.8867
G01 X21.3609 Y-0.9573
G01 X21.4570 Y-1.0190
G01 X21.5585 Y-1.0714
G01 X21.6645 Y-1.1138
G01 X21.7859 Y-1.1509
G01 X21.9532 Y-1.1873
G01 X22.1240 Y-1.1995
G01 X36.9397 Y-1.1978
G01 X37.0675 Y-1.1840
G01 X37.2404 Y-1.1467
G01 X37.3544 Y-1.1096
G01 X37.4642 Y-1.0614
G01 X37.5686 Y-1.0024
G01 X37.6666 Y-0.9333
G01 X37.8079 Y-0.8110
G01 X37.8867 Y-0.7284
G01 X37.9573 Y-0.6386
G01 X38.0190 Y-0.5426
G01 X38.0714 Y-0.4411
G01 X38.1138 Y-0.3351
G01 X38.1509 Y-0.2136
G01 X38.1873 Y-0.0463
G01 X38.1995 Y0.1245
G01 X38.1978 Y11.0347
G01 X38.1840 Y11.1625
G01 X38.1467 Y11.3354
G01 X38.1096 Y11.4494
G01 X38.0614 Y11.5592
G01 X38.0024 Y11.6636
G01 X37.9333 Y11.7616
G01 X37.8110 Y11.9029
G01 X37.7284 Y11.9817
G01 X37.6386 Y12.0523
G01 X37.5425 Y12.1140
G01 X37.4411 Y12.1664
G01 X37.3350 Y12.2088
G01 X37.2136 Y12.2459
G01 X37.0463 Y12.2823
G01 X36.8755 Y12.2945
G01 X22.1240 Y12.2945
G01 X22.0598 Y12.2928
G01 X21.8689 Y12.2671
G01 X21.7591 Y12.2417
G01 X21.6451 Y12.2046
G01 X21.5353 Y12.1564
G01 X21.4309 Y12.0974
G01 X21.3329 Y12.0283
G01 X21.1916 Y11.9060
G01 X21.1128 Y11.8234
G01 X21.0422 Y11.7336
G01 X20.9805 Y11.6375
G01 X20.9281 Y11.5361
G01 X20.8857 Y11.4300
G01 X20.8486 Y11.3086
G01 X20.8122 Y11.1413
G01 X20.8000 Y10.9705
G01 X20.8023 Y10.4871
G01 X20.8154 Y10.3690
G01 X20.8401 Y10.2528
G01 X20.8966 Y10.0753
G01 X20.9415 Y9.9703
G01 X20.9961 Y9.8700
G01 X21.0600 Y9.7754
G01 X21.1327 Y9.6872
G01 X21.2134 Y9.6064
G01 X21.3399 Y9.5012
G01 X21.1916 Y9.3743
G01 X21.1128 Y9.2917
G01 X21.0422 Y9.2019
G01 X20.9805 Y9.1058
G01 X20.9281 Y9.0043
G01 X20.8857 Y8.8983
G01 X20.8338 Y8.7217
G00 Z2.0000
G00 X20.8486 Y20.7769
G01 F60.00
G01 Z-0.1000
G01 F120.00
G01 X20.8122 Y20.6096
G01 X20.8014 Y20.4959
G01 X20.8017 Y19.9653
G01 X20.8155 Y19.8375
G01 X20.8528 Y19.6646
G01 X20.8899 Y19.5506
G01 X20.9381 Y19.4408
G01 X20.9971 Y19.3364
G01 X21.1043 Y19.1922
G01 X21.1885 Y19.0971
G01 X21.2711 Y19.0183
G01 X21.3609 Y18.9477
G01 X21.4570 Y18.8860
G01 X21.5585 Y18.8336
G01 X21.6645 Y18.7912
G01 X21.8411 Y18.7393
G01 X21.9532 Y18.7177
G01 X22.1240 Y18.7055
G01 X36.8755 Y18.7055
G01 X37.0675 Y18.7210
G01 X37.2404 Y18.7583
G01 X37.3544 Y18.7954
G01 X37.4642 Y18.8436
G01 X37.5686 Y18.9026
G01 X37.6666 Y18.9717
G01 X37.8079 Y19.0940
G01 X37.8867 Y19.1766
G01 X37.9573 Y19.2664
G01 X38.0190 Y19.3624
G01 X38.0714 Y19.4639
G01 X38.1138 Y19.5699
G01 X38.1509 Y19.6914
G01 X38.1873 Y19.8587
G01 X38.1981 Y19.9724
G01 X38.1995 Y30.8755
G01 X38.1840 Y31.0675
G01 X38.1467 Y31.2403
G01 X38.1096 Y31.3544
G01 X38.0614 Y31.4642
G01 X38.0024 Y31.5686
G01 X37.9333 Y31.6666
G01 X37.8110 Y31.8079
G01 X37.7284 Y31.8867
G01 X37.6386 Y31.9573
G01 X37.5425 Y32.0190
G01 X37.4410 Y32.0714
G01 X37.3350 Y32.1138
G01 X37.2136 Y32.1509
G01 X37.0463 Y32.1873
G01 X36.9326 Y32.1981
G01 X22.1240 Y32.1995
G01 X21.9320 Y32.1840
G01 X21.7591 Y32.1467
G01 X21.6451 Y32.1096
G01 X21.5353 Y32.0614
G01 X21.4309 Y32.0024
G01 X21.3329 Y31.9333
G01 X21.1916 Y31.8110
G01 X21.1128 Y31.7284
G01 X21.0422 Y31.6386
G01 X20.9805 Y31.5425
G01 X20.9281 Y31.4410
G01 X20.8857 Y31.3350
G01 X20.8486 Y31.2136
G01 X20.8122 Y31.0463
G01 X20.8014 Y30.9326
G01 X20.8023 Y22.4871
G01 X20.8154 Y22.3690
G01 X20.8567 Y22.1958
G01 X20.8966 Y22.0753
G01 X20.9415 Y21.9703
G01 X20.9961 Y21.8700
G01 X21.0600 Y21.7754
G01 X21.1327 Y21.6872
G01 X21.2134 Y21.6064
G01 X21.3399 Y21.5012
G01 X21.1916 Y21.3743
G01 X21.1128 Y21.2917
G01 X21.0422 Y21.2019
G01 X20.9804 Y21.1058
G01 X20.9281 Y21.0043
G01 X20.8857 Y20.8983
G01 X20.8486 Y20.7769
G00 Z2.0000
G00 X2.6996 Y30.9980
G01 F60.00
G01 Z-0.1000
G01 F120.00
G01 X2.6838 Y30.7094
G01 X2.6570 Y30.5421
G01 X2.6504 Y30.4294
G01 X2.6514 Y28.5411
G01 X2.6642 Y28.3994
G01 X2.6967 Y28.2359
G01 X2.7604 Y28.0451
G01 X2.8212 Y27.9165
G01 X2.9429 Y27.7266
G01 X3.0747 Y27.5747
G01 X3.2463 Y27.4283
G01 X3.3442 Y27.3629
G01 X3.4691 Y27.2947
G01 X3.6791 Y27.2124
G01 X3.8994 Y27.1642
G01 X4.0705 Y27.1504
G01 X4.4785 Y27.1500
G01 X4.5969 Y27.1421
G01 X4.8101 Y27.0973
G01 X4.9939 Y27.0299
G01 X5.1281 Y26.9604
G01 X5.2559 Y26.8716
G01 X5.4300 Y26.7060
G01 X5.5557 Y26.5421
G01 X5.6325 Y26.4084
G01 X5.6914 Y26.2665
G01 X5.7454 Y26.0560
G01 X5.7661 Y25.8494
G01 X5.7612 Y25.6992
G01 X5.7368 Y25.4320
G01 X5.7200 Y25.0000
G01 X5.7502 Y24.3845
G01 X5.7927 Y24.0598
G01 X5.8407 Y23.7748
G01 X5.8730 Y23.6305
G01 X5.9904 Y23.1770
G01 X6.1980 Y22.5967
G01 X6.3268 Y22.3113
G01 X6.4615 Y22.0396
G01 X6.5494 Y21.8856
G01 X6.7784 Y21.5110
G01 X7.1455 Y21.0160
G01 X7.3419 Y20.7909
G01 X7.5594 Y20.5594
G01 X7.6778 Y20.4473
G01 X8.0160 Y20.1455
G01 X8.3256 Y19.9095
G01 X8.5110 Y19.7784
G01 X8.7521 Y19.6273
G01 X9.0396 Y19.4615
G01 X9.1529 Y19.4046
G01 X9.5968 Y19.1980
G01 X9.9480 Y19.0667
G01 X10.1770 Y18.9904
G01 X10.7174 Y18.8536
G01 X10.9882 Y18.8062
G01 X11.3316 Y18.7297
G01 X11.5241 Y18.7066
G01 X19.5347 Y18.7072
G01 X19.6625 Y18.7210
G01 X19.8354 Y18.7583
G01 X19.9494 Y18.7954
G01 X20.0592 Y18.8436
G01 X20.1636 Y18.9026
G01 X20.3078 Y19.0098
G01 X20.4029 Y19.0940
G01 X20.4817 Y19.1766
G01 X20.5523 Y19.2664
G01 X20.6140 Y19.3625
G01 X20.6664 Y19.4640
G01 X20.7088 Y19.5700
G01 X20.7607 Y19.7466
G01 X20.7823 Y19.8587
G01 X20.7931 Y19.9724
G01 X20.7945 Y20.4003
G01 X20.8090 Y20.6634
G01 X20.7993 Y20.8320
G01 X20.7789 Y20.9539
G01 X20.7461 Y21.0731
G01 X20.7013 Y21.1882
G01 X20.6426 Y21.3060
G01 X20.5537 Y21.4524
G01 X20.5169 Y21.4993
G01 X20.6435 Y21.6840
G01 X20.6958 Y21.7890
G01 X20.7377 Y21.8985
G01 X20.7799 Y22.0692
G01 X20.8000 Y22.1946
G01 X20.8084 Y22.3085
G01 X20.7947 Y22.5541
G01 X20.7945 Y30.8755
G01 X20.7790 Y31.0675
G01 X20.7559 Y31.1821
G01 X20.7046 Y31.3544
G01 X20.6564 Y31.4642
G01 X20.5974 Y31.5686
G01 X20.4902 Y31.7128
G01 X20.4060 Y31.8079
G01 X20.3234 Y31.8867
G01 X20.2336 Y31.9573
G01 X20.1375 Y32.0190
G01 X20.0360 Y32.0714
G01 X19.8756 Y32.1312
G01 X19.7534 Y32.1657
G01 X19.6413 Y32.1873
G01 X19.4705 Y32.1995
G01 X3.9610 Y32.1982
G01 X3.8479 Y32.1874
G01 X3.6903 Y32.1572
G01 X3.5809 Y32.1252
G01 X3.4750 Y32.0830
G01 X3.3736 Y32.0309
G01 X3.2777 Y31.9695
G01 X3.1329 Y31.8560
G01 X3.0501 Y31.7774
G01 X2.9751 Y31.6912
G01 X2.9087 Y31.5983
G01 X2.8514 Y31.4996
G01 X2.8038 Y31.3958
G01 X2.7432 Y31.2220
G01 X2.7161 Y31.1110
G01 X2.6996 Y30.9980
G00 Z2.0000
G00 X-1.1981 Y30.9326
G01 F60.00
G01 Z-0.1000
G01 F120.00
G01 X-1.1991 Y0.0924
G01 X-1.1785 Y-0.0991
G01 X-1.1296 Y-0.2978
G01 X-1.0869 Y-0.4099
G01 X-1.0024 Y-0.5686
G01 X-0.8952 Y-0.7128
G01 X-0.8110 Y-0.8079
G01 X-0.7284 Y-0.8867
G01 X-0.5913 Y-0.9893
G01 X-0.4410 Y-1.0714
G01 X-0.3350 Y-1.1138
G01 X-0.1584 Y-1.1657
G01 X-0.0463 Y-1.1873
G01 X0.0674 Y-1.1981
G01 X1.3747 Y-1.1995
G01 X1.5643 Y-1.1836
G01 X1.6811 Y-1.1584
G01 X1.8588 Y-1.1012
G01 X1.9637 Y-1.0559
G01 X2.0638 Y-1.0009
G01 X2.1581 Y-0.9366
G01 X2.2460 Y-0.8637
G01 X2.3265 Y-0.7827
G01 X2.4260 Y-0.6631
G01 X2.5355 Y-0.4961
G01 X2.6062 Y-0.3402
G01 X2.6540 Y-0.1758
G01 X2.6836 Y0.0347
G01 X2.6855 Y0.2344
G01 X2.6543 Y0.4504
G01 X2.6495 Y0.5390
G01 X2.6496 Y2.4614
G01 X2.6547 Y2.5532
G01 X2.6860 Y2.7347
G01 X2.7379 Y2.9059
G01 X2.8104 Y3.0695
G01 X2.9024 Y3.2229
G01 X3.0126 Y3.3638
G01 X3.1393 Y3.4901
G01 X3.2806 Y3.5999
G01 X3.4342 Y3.6915
G01 X3.5980 Y3.7635
G01 X3.7695 Y3.8149
G01 X3.9510 Y3.8458
G01 X4.5479 Y3.8553
G01 X4.7072 Y3.8805
G01 X4.8760 Y3.9271
G01 X5.0301 Y3.9895
G01 X5.1741 Y4.0726
G01 X5.3053 Y4.1747
G01 X5.4696 Y4.3466
G01 X5.5702 Y4.4851
G01 X5.6501 Y4.6365
G01 X5.7076 Y4.7978
G01 X5.7538 Y5.0344
G01 X5.7630 Y5.1482
G01 X5.7614 Y5.2624
G01 X5.7321 Y5.5412
G01 X5.7153 Y6.0000
G01 X5.7321 Y6.4586
G01 X5.7826 Y6.9169
G01 X5.8662 Y7.3683
G01 X5.9824 Y7.8126
G01 X6.1300 Y8.2451
G01 X6.3105 Y8.6694
G01 X6.5194 Y9.0758
G01 X6.7596 Y9.4691
G01 X7.0269 Y9.8425
G01 X7.3207 Y10.1953
G01 X7.6394 Y10.5256
G01 X7.9814 Y10.8319
G01 X8.3448 Y11.1123
G01 X8.7277 Y11.3655
G01 X9.1281 Y11.5900
G01 X9.5438 Y11.7848
G01 X9.9726 Y11.9486
G01 X10.4123 Y12.0807
G01 X10.8606 Y12.1805
G01 X11.1012 Y12.2182
G01 X11.2165 Y12.2486
G01 X11.3500 Y12.3000
G01 X36.9076 Y12.3004
G01 X37.0991 Y12.3210
G01 X37.2978 Y12.3699
G01 X37.4099 Y12.4126
G01 X37.5686 Y12.4971
G01 X37.7128 Y12.6043
G01 X37.8079 Y12.6885
G01 X37.8867 Y12.7711
G01 X37.9893 Y12.9082
G01 X38.0714 Y13.0585
G01 X38.1138 Y13.1645
G01 X38.1657 Y13.3411
G01 X38.1873 Y13.4532
G01 X38.1992 Y13.5954
G01 X38.1995 Y17.3760
G01 X38.1840 Y17.5680
G01 X38.1296 Y17.7984
G01 X38.0614 Y17.9647
G01 X37.9691 Y18.1189
G01 X37.8110 Y18.3084
G01 X37.6843 Y18.4236
G01 X37.5913 Y18.4898
G01 X37.4924 Y18.5469
G01 X37.3350 Y18.6143
G01 X37.1026 Y18.6783
G01 X36.9896 Y18.6946
G01 X36.8755 Y18.7000
G01 X11.3481 Y18.7000
G01 X11.2467 Y18.7408
G01 X11.1372 Y18.7733
G01 X10.8585 Y18.8198
G01 X10.4104 Y18.9197
G01 X9.9710 Y19.0519
G01 X9.5401 Y19.2168
G01 X9.1264 Y19.4108
G01 X8.7262 Y19.6353
G01 X8.3416 Y19.8900
G01 X7.9799 Y20.1693
G01 X7.6381 Y20.4755
G01 X7.3180 Y20.8077
G01 X7.0257 Y21.1590
G01 X6.7587 Y21.5322
G01 X6.5185 Y21.9260
G01 X6.3095 Y22.3324
G01 X6.1300 Y22.7549
G01 X5.9813 Y23.1912
G01 X5.8653 Y23.6356
G01 X5.7823 Y24.0849
G01 X5.7321 Y24.5412
G01 X5.7153 Y25.0000
G01 X5.7321 Y25.4588
G01 X5.7612 Y25.7343
G01 X5.7558 Y25.9491
G01 X5.7154 Y26.1760
G01 X5.6629 Y26.3338
G01 X5.5891 Y26.4827
G01 X5.4955 Y26.6201
G01 X5.3356 Y26.7983
G01 X5.2035 Y26.9073
G01 X5.0574 Y26.9964
G01 X4.9000 Y27.0638
G01 X4.7234 Y27.1157
G01 X4.5545 Y27.1441
G01 X3.9482 Y27.1544
G01 X3.7673 Y27.1853
G01 X3.5960 Y27.2370
G01 X3.4323 Y27.3092
G01 X3.2787 Y27.4011
G01 X3.1376 Y27.5111
G01 X3.0111 Y27.6376
G01 X2.9011 Y27.7787
G01 X2.8092 Y27.9323
G01 X2.7372 Y28.0955
G01 X2.6851 Y28.2694
G01 X2.6542 Y28.4510
G01 X2.6495 Y28.5390
G01 X2.6496 Y30.4614
G01 X2.6548 Y30.5541
G01 X2.6874 Y30.7901
G01 X2.6809 Y30.9990
G01 X2.6455 Y31.2099
G01 X2.6133 Y31.3195
G01 X2.5709 Y31.4255
G01 X2.5186 Y31.5270
G01 X2.4568 Y31.6231
G01 X2.3215 Y31.7870
G01 X2.1754 Y31.9231
G01 X2.0824 Y31.9893
G01 X1.9835 Y32.0464
G01 X1.7990 Y32.1228
G01 X1.6495 Y32.1657
G01 X1.5373 Y32.1873
G01 X1.3665 Y32.1995
G01 X0.0924 Y32.1991
G01 X-0.0675 Y32.1840
G01 X-0.2113 Y32.1541
G01 X-0.4099 Y32.0869
G01 X-0.5686 Y32.0024
G01 X-0.6666 Y31.9333
G01 X-0.7870 Y31.8305
G01 X-0.9231 Y31.6843
G01 X-1.0190 Y31.5425
G01 X-1.0714 Y31.4410
G01 X-1.1138 Y31.3350
G01 X-1.1778 Y31.1026
G01 X-1.1981 Y30.9326
G00 Z2.0000
M05
G00 Z2.0000
G00 Z15.00


