(G-code generated by FlatCAM Evo vUnstable - Version Date: 2023/6/31)

(Name: SCAN2000_rearconn.drl_cnc)
(Type: G-code from Excellon)
(Units: MM)

(Created on Saturday, 24 June 2023 at 18:24)

(This preprocessor is the default preprocessor.)
(It is made to work with MACH3 compatible motion controllers.)


(TOOLS DIAMETER: )
(Tool: 1 -> Dia: 1.1)

(FEEDRATE Z: )
(Tool: 1 -> Feedrate: 300)

(FEEDRATE RAPIDS: )
(Tool: 1 -> Feedrate Rapids: 1500)

(Z_CUT: )
(Tool: 1 -> Z_Cut: -1.7)

(Tools Offset: )
(Tool: 1 -> Offset Z: 0.0)

(Z_MOVE: )
(Tool: 1 -> Z_Move: 2)

(Z Start: None mm)
(Z End: 15 mm)
(X,Y End: None mm)
(Steps per circle: 16)
(Preprocessor Excellon: default)

(X range:    1.4500 ...   32.7500  mm)
(Y range:    0.9500 ...   30.0500  mm)

(Spindle Speed: 0 RPM)
G21
G90
G94

G01 F300.00
G00 Z2.0000

M03
G00 X2.0000 Y23.5000
G01 Z-1.7000
G01 Z0
G00 Z2.0000
G00 X3.0000 Y18.5000
G01 Z-1.7000
G01 Z0
G00 Z2.0000
G00 X3.0000 Y12.5000
G01 Z-1.7000
G01 Z0
G00 Z2.0000
G00 X5.0000 Y1.5000
G01 Z-1.7000
G01 Z0
G00 Z2.0000
G00 X12.0000 Y6.0000
G01 Z-1.7000
G01 Z0
G00 Z2.0000
G00 X24.0000 Y1.5000
G01 Z-1.7000
G01 Z0
G00 Z2.0000
G00 X31.0000 Y6.0000
G01 Z-1.7000
G01 Z0
G00 Z2.0000
G00 X31.0000 Y25.0000
G01 Z-1.7000
G01 Z0
G00 Z2.0000
G00 X24.0000 Y29.5000
G01 Z-1.7000
G01 Z0
G00 Z2.0000
G00 X12.0000 Y25.0000
G01 Z-1.7000
G01 Z0
G00 Z2.0000
G00 X5.0000 Y29.5000
G01 Z-1.7000
G01 Z0
G00 Z2.0000
M05
G00 Z15.00


