(G-code generated by FlatCAM Evo vUnstable - Version Date: 2023/6/31)

(Name: SCAN2000_rearconn-Edge_Cuts_cutout_cnc)
(Type: G-code from Geometry)
(Units: MM)

(Created on Saturday, 24 June 2023 at 18:07)

(This preprocessor is the default preprocessor.)
(It is made to work with MACH3 compatible motion controllers.)

(TOOL DIAMETER: 2.4 mm)
(Feedrate_XY: 120.0 mm/min)
(Feedrate_Z: 60.0 mm/min)
(Feedrate rapids 1500.0 mm/min)

(Z_Cut: -2.4999999999999996 mm)
(DepthPerCut: 0.5 mm <=>5 passes)
(Z_Move: 2.0 mm)
(Z Start: None mm)
(Z End: 15.0 mm)
(X,Y End: None mm)
(Steps per circle: 16)
(Preprocessor Geometry: default)

(X range:   -1.3500 ...   38.3500  mm)
(Y range:   -1.3500 ...   32.3500  mm)

(Spindle Speed: 0.0 RPM)
G21
G90
G94

G01 F120.00
G00 Z2.0000

M03
G01 F120.00
G00 X-1.3500 Y13.8000
G01 F60.00
G01 Z-0.5000
G01 F120.00
G01 X-1.3485 Y-0.0638
G01 X-1.3357 Y-0.1957
G01 X-1.3101 Y-0.3256
G01 X-1.2719 Y-0.4525
G01 X-1.2214 Y-0.5750
G01 X-1.1592 Y-0.6919
G01 X-1.0858 Y-0.8022
G01 X-0.9986 Y-0.9084
G01 X-0.9048 Y-1.0019
G01 X-0.8022 Y-1.0858
G01 X-0.6919 Y-1.1592
G01 X-0.5794 Y-1.2193
G01 X-0.4571 Y-1.2702
G01 X-0.3304 Y-1.3089
G01 X-0.2005 Y-1.3350
G01 X-0.0000 Y-1.3500
G01 X16.8000 Y-1.3500
G00 X16.8000 Y-1.3500
G01 F60.00
G01 Z-1.0000
G01 F120.00
G01 X-0.0000 Y-1.3500
G01 X-0.2005 Y-1.3350
G01 X-0.3304 Y-1.3089
G01 X-0.4571 Y-1.2702
G01 X-0.5794 Y-1.2193
G01 X-0.6919 Y-1.1592
G01 X-0.8022 Y-1.0858
G01 X-0.9048 Y-1.0019
G01 X-0.9986 Y-0.9084
G01 X-1.0858 Y-0.8022
G01 X-1.1592 Y-0.6919
G01 X-1.2214 Y-0.5750
G01 X-1.2719 Y-0.4525
G01 X-1.3101 Y-0.3256
G01 X-1.3357 Y-0.1957
G01 X-1.3485 Y-0.0638
G01 X-1.3500 Y13.8000
G00 X-1.3500 Y13.8000
G01 F60.00
G01 Z-1.5000
G01 F120.00
G01 X-1.3485 Y-0.0638
G01 X-1.3357 Y-0.1957
G01 X-1.3101 Y-0.3256
G01 X-1.2719 Y-0.4525
G01 X-1.2214 Y-0.5750
G01 X-1.1592 Y-0.6919
G01 X-1.0858 Y-0.8022
G01 X-0.9986 Y-0.9084
G01 X-0.9048 Y-1.0019
G01 X-0.8022 Y-1.0858
G01 X-0.6919 Y-1.1592
G01 X-0.5794 Y-1.2193
G01 X-0.4571 Y-1.2702
G01 X-0.3304 Y-1.3089
G01 X-0.2005 Y-1.3350
G01 X-0.0000 Y-1.3500
G01 X16.8000 Y-1.3500
G00 X16.8000 Y-1.3500
G01 F60.00
G01 Z-2.0000
G01 F120.00
G01 X-0.0000 Y-1.3500
G01 X-0.2005 Y-1.3350
G01 X-0.3304 Y-1.3089
G01 X-0.4571 Y-1.2702
G01 X-0.5794 Y-1.2193
G01 X-0.6919 Y-1.1592
G01 X-0.8022 Y-1.0858
G01 X-0.9048 Y-1.0019
G01 X-0.9986 Y-0.9084
G01 X-1.0858 Y-0.8022
G01 X-1.1592 Y-0.6919
G01 X-1.2214 Y-0.5750
G01 X-1.2719 Y-0.4525
G01 X-1.3101 Y-0.3256
G01 X-1.3357 Y-0.1957
G01 X-1.3485 Y-0.0638
G01 X-1.3500 Y13.8000
G00 X-1.3500 Y13.8000
G01 F60.00
G01 Z-2.5000
G01 F120.00
G01 X-1.3485 Y-0.0638
G01 X-1.3357 Y-0.1957
G01 X-1.3101 Y-0.3256
G01 X-1.2719 Y-0.4525
G01 X-1.2214 Y-0.5750
G01 X-1.1592 Y-0.6919
G01 X-1.0858 Y-0.8022
G01 X-0.9986 Y-0.9084
G01 X-0.9048 Y-1.0019
G01 X-0.8022 Y-1.0858
G01 X-0.6919 Y-1.1592
G01 X-0.5794 Y-1.2193
G01 X-0.4571 Y-1.2702
G01 X-0.3304 Y-1.3089
G01 X-0.2005 Y-1.3350
G01 X-0.0000 Y-1.3500
G01 X16.8000 Y-1.3500
G00 Z2.0000
G00 X-1.3500 Y17.2000
G01 F60.00
G01 Z-0.5000
G01 F120.00
G01 X-1.3485 Y31.0638
G01 X-1.3357 Y31.1957
G01 X-1.3101 Y31.3256
G01 X-1.2719 Y31.4525
G01 X-1.2214 Y31.5750
G01 X-1.1592 Y31.6919
G01 X-1.0858 Y31.8022
G01 X-0.9986 Y31.9084
G01 X-0.9048 Y32.0019
G01 X-0.8022 Y32.0858
G01 X-0.6919 Y32.1592
G01 X-0.5794 Y32.2193
G01 X-0.4571 Y32.2702
G01 X-0.3304 Y32.3089
G01 X-0.2005 Y32.3350
G01 X-0.0000 Y32.3500
G01 X16.8000 Y32.3500
G00 X16.8000 Y32.3500
G01 F60.00
G01 Z-1.0000
G01 F120.00
G01 X-0.0000 Y32.3500
G01 X-0.2005 Y32.3350
G01 X-0.3304 Y32.3089
G01 X-0.4571 Y32.2702
G01 X-0.5794 Y32.2193
G01 X-0.6919 Y32.1592
G01 X-0.8022 Y32.0858
G01 X-0.9048 Y32.0019
G01 X-0.9986 Y31.9084
G01 X-1.0858 Y31.8022
G01 X-1.1592 Y31.6919
G01 X-1.2214 Y31.5750
G01 X-1.2719 Y31.4525
G01 X-1.3101 Y31.3256
G01 X-1.3357 Y31.1957
G01 X-1.3485 Y31.0638
G01 X-1.3500 Y17.2000
G00 X-1.3500 Y17.2000
G01 F60.00
G01 Z-1.5000
G01 F120.00
G01 X-1.3485 Y31.0638
G01 X-1.3357 Y31.1957
G01 X-1.3101 Y31.3256
G01 X-1.2719 Y31.4525
G01 X-1.2214 Y31.5750
G01 X-1.1592 Y31.6919
G01 X-1.0858 Y31.8022
G01 X-0.9986 Y31.9084
G01 X-0.9048 Y32.0019
G01 X-0.8022 Y32.0858
G01 X-0.6919 Y32.1592
G01 X-0.5794 Y32.2193
G01 X-0.4571 Y32.2702
G01 X-0.3304 Y32.3089
G01 X-0.2005 Y32.3350
G01 X-0.0000 Y32.3500
G01 X16.8000 Y32.3500
G00 X16.8000 Y32.3500
G01 F60.00
G01 Z-2.0000
G01 F120.00
G01 X-0.0000 Y32.3500
G01 X-0.2005 Y32.3350
G01 X-0.3304 Y32.3089
G01 X-0.4571 Y32.2702
G01 X-0.5794 Y32.2193
G01 X-0.6919 Y32.1592
G01 X-0.8022 Y32.0858
G01 X-0.9048 Y32.0019
G01 X-0.9986 Y31.9084
G01 X-1.0858 Y31.8022
G01 X-1.1592 Y31.6919
G01 X-1.2214 Y31.5750
G01 X-1.2719 Y31.4525
G01 X-1.3101 Y31.3256
G01 X-1.3357 Y31.1957
G01 X-1.3485 Y31.0638
G01 X-1.3500 Y17.2000
G00 X-1.3500 Y17.2000
G01 F60.00
G01 Z-2.5000
G01 F120.00
G01 X-1.3485 Y31.0638
G01 X-1.3357 Y31.1957
G01 X-1.3101 Y31.3256
G01 X-1.2719 Y31.4525
G01 X-1.2214 Y31.5750
G01 X-1.1592 Y31.6919
G01 X-1.0858 Y31.8022
G01 X-0.9986 Y31.9084
G01 X-0.9048 Y32.0019
G01 X-0.8022 Y32.0858
G01 X-0.6919 Y32.1592
G01 X-0.5794 Y32.2193
G01 X-0.4571 Y32.2702
G01 X-0.3304 Y32.3089
G01 X-0.2005 Y32.3350
G01 X-0.0000 Y32.3500
G01 X16.8000 Y32.3500
G00 Z2.0000
G00 X20.2000 Y32.3500
G01 F60.00
G01 Z-0.5000
G01 F120.00
G01 X37.0000 Y32.3500
G01 X37.2005 Y32.3350
G01 X37.3304 Y32.3089
G01 X37.4571 Y32.2702
G01 X37.5794 Y32.2193
G01 X37.6919 Y32.1592
G01 X37.8022 Y32.0858
G01 X37.9048 Y32.0019
G01 X37.9986 Y31.9084
G01 X38.0858 Y31.8022
G01 X38.1592 Y31.6919
G01 X38.2214 Y31.5750
G01 X38.2719 Y31.4525
G01 X38.3101 Y31.3256
G01 X38.3357 Y31.1957
G01 X38.3485 Y31.0638
G01 X38.3500 Y17.2000
G00 X38.3500 Y17.2000
G01 F60.00
G01 Z-1.0000
G01 F120.00
G01 X38.3485 Y31.0638
G01 X38.3357 Y31.1957
G01 X38.3101 Y31.3256
G01 X38.2719 Y31.4525
G01 X38.2214 Y31.5750
G01 X38.1592 Y31.6919
G01 X38.0858 Y31.8022
G01 X37.9986 Y31.9084
G01 X37.9048 Y32.0019
G01 X37.8022 Y32.0858
G01 X37.6919 Y32.1592
G01 X37.5794 Y32.2193
G01 X37.4571 Y32.2702
G01 X37.3304 Y32.3089
G01 X37.2005 Y32.3350
G01 X37.0000 Y32.3500
G01 X20.2000 Y32.3500
G00 X20.2000 Y32.3500
G01 F60.00
G01 Z-1.5000
G01 F120.00
G01 X37.0000 Y32.3500
G01 X37.2005 Y32.3350
G01 X37.3304 Y32.3089
G01 X37.4571 Y32.2702
G01 X37.5794 Y32.2193
G01 X37.6919 Y32.1592
G01 X37.8022 Y32.0858
G01 X37.9048 Y32.0019
G01 X37.9986 Y31.9084
G01 X38.0858 Y31.8022
G01 X38.1592 Y31.6919
G01 X38.2214 Y31.5750
G01 X38.2719 Y31.4525
G01 X38.3101 Y31.3256
G01 X38.3357 Y31.1957
G01 X38.3485 Y31.0638
G01 X38.3500 Y17.2000
G00 X38.3500 Y17.2000
G01 F60.00
G01 Z-2.0000
G01 F120.00
G01 X38.3485 Y31.0638
G01 X38.3357 Y31.1957
G01 X38.3101 Y31.3256
G01 X38.2719 Y31.4525
G01 X38.2214 Y31.5750
G01 X38.1592 Y31.6919
G01 X38.0858 Y31.8022
G01 X37.9986 Y31.9084
G01 X37.9048 Y32.0019
G01 X37.8022 Y32.0858
G01 X37.6919 Y32.1592
G01 X37.5794 Y32.2193
G01 X37.4571 Y32.2702
G01 X37.3304 Y32.3089
G01 X37.2005 Y32.3350
G01 X37.0000 Y32.3500
G01 X20.2000 Y32.3500
G00 X20.2000 Y32.3500
G01 F60.00
G01 Z-2.5000
G01 F120.00
G01 X37.0000 Y32.3500
G01 X37.2005 Y32.3350
G01 X37.3304 Y32.3089
G01 X37.4571 Y32.2702
G01 X37.5794 Y32.2193
G01 X37.6919 Y32.1592
G01 X37.8022 Y32.0858
G01 X37.9048 Y32.0019
G01 X37.9986 Y31.9084
G01 X38.0858 Y31.8022
G01 X38.1592 Y31.6919
G01 X38.2214 Y31.5750
G01 X38.2719 Y31.4525
G01 X38.3101 Y31.3256
G01 X38.3357 Y31.1957
G01 X38.3485 Y31.0638
G01 X38.3500 Y17.2000
G00 Z2.0000
G00 X38.3500 Y13.8000
G01 F60.00
G01 Z-0.5000
G01 F120.00
G01 X38.3485 Y-0.0638
G01 X38.3357 Y-0.1957
G01 X38.3101 Y-0.3256
G01 X38.2719 Y-0.4525
G01 X38.2214 Y-0.5750
G01 X38.1592 Y-0.6919
G01 X38.0858 Y-0.8022
G01 X37.9986 Y-0.9084
G01 X37.9048 Y-1.0019
G01 X37.8022 Y-1.0858
G01 X37.6919 Y-1.1592
G01 X37.5794 Y-1.2193
G01 X37.4571 Y-1.2702
G01 X37.3304 Y-1.3089
G01 X37.2005 Y-1.3350
G01 X37.0000 Y-1.3500
G01 X20.2000 Y-1.3500
G00 X20.2000 Y-1.3500
G01 F60.00
G01 Z-1.0000
G01 F120.00
G01 X37.0000 Y-1.3500
G01 X37.2005 Y-1.3350
G01 X37.3304 Y-1.3089
G01 X37.4571 Y-1.2702
G01 X37.5794 Y-1.2193
G01 X37.6919 Y-1.1592
G01 X37.8022 Y-1.0858
G01 X37.9048 Y-1.0019
G01 X37.9986 Y-0.9084
G01 X38.0858 Y-0.8022
G01 X38.1592 Y-0.6919
G01 X38.2214 Y-0.5750
G01 X38.2719 Y-0.4525
G01 X38.3101 Y-0.3256
G01 X38.3357 Y-0.1957
G01 X38.3485 Y-0.0638
G01 X38.3500 Y13.8000
G00 X38.3500 Y13.8000
G01 F60.00
G01 Z-1.5000
G01 F120.00
G01 X38.3485 Y-0.0638
G01 X38.3357 Y-0.1957
G01 X38.3101 Y-0.3256
G01 X38.2719 Y-0.4525
G01 X38.2214 Y-0.5750
G01 X38.1592 Y-0.6919
G01 X38.0858 Y-0.8022
G01 X37.9986 Y-0.9084
G01 X37.9048 Y-1.0019
G01 X37.8022 Y-1.0858
G01 X37.6919 Y-1.1592
G01 X37.5794 Y-1.2193
G01 X37.4571 Y-1.2702
G01 X37.3304 Y-1.3089
G01 X37.2005 Y-1.3350
G01 X37.0000 Y-1.3500
G01 X20.2000 Y-1.3500
G00 X20.2000 Y-1.3500
G01 F60.00
G01 Z-2.0000
G01 F120.00
G01 X37.0000 Y-1.3500
G01 X37.2005 Y-1.3350
G01 X37.3304 Y-1.3089
G01 X37.4571 Y-1.2702
G01 X37.5794 Y-1.2193
G01 X37.6919 Y-1.1592
G01 X37.8022 Y-1.0858
G01 X37.9048 Y-1.0019
G01 X37.9986 Y-0.9084
G01 X38.0858 Y-0.8022
G01 X38.1592 Y-0.6919
G01 X38.2214 Y-0.5750
G01 X38.2719 Y-0.4525
G01 X38.3101 Y-0.3256
G01 X38.3357 Y-0.1957
G01 X38.3485 Y-0.0638
G01 X38.3500 Y13.8000
G00 X38.3500 Y13.8000
G01 F60.00
G01 Z-2.5000
G01 F120.00
G01 X38.3485 Y-0.0638
G01 X38.3357 Y-0.1957
G01 X38.3101 Y-0.3256
G01 X38.2719 Y-0.4525
G01 X38.2214 Y-0.5750
G01 X38.1592 Y-0.6919
G01 X38.0858 Y-0.8022
G01 X37.9986 Y-0.9084
G01 X37.9048 Y-1.0019
G01 X37.8022 Y-1.0858
G01 X37.6919 Y-1.1592
G01 X37.5794 Y-1.2193
G01 X37.4571 Y-1.2702
G01 X37.3304 Y-1.3089
G01 X37.2005 Y-1.3350
G01 X37.0000 Y-1.3500
G01 X20.2000 Y-1.3500
G00 Z2.0000
M05
G00 Z2.0000
G00 Z15.00


